outputs/icons/action/love_outline_round.svg

<svg xmlns="http://www.w3.org/2000/svg" width="1200" height="1200" fill="none"><g clip-path="url(#a)"><path fill="#000" d="M983 199.508c-132-89.999-295-48-383 55-88-103-251.002-145.5-383.001-55-70 48-114.001 129.001-117 214.501C92.998 608.01 264.998 763.51 527.5 1002.01l5 4.5c38 34.5 96.5 34.5 134.5-.5l5.5-5c262.5-238 434-393.5 427.5-587.501-3-85-47-166.001-117-214.001M605 927.51l-5 5-5-5c-238.002-215.5-395.002-358-395.002-502.501 0-100.001 75.001-175.001 175.001-175.001 77 0 152.001 49.501 178.501 118.001H647c26-68.5 101-118.001 178-118.001 100 0 175 75 175 175.001 0 144.501-157 287.001-395 502.501"/></g><defs><clipPath id="a"><path fill="#fff" d="M0 0h1200v1200H0z"/></clipPath></defs></svg>

<svg width="1200" height="1200" viewBox="0 0 1200 1200" fill="none" xmlns="http://www.w3.org/2000/svg"><g clip-path="url(#clip0_223_1871)"><path d="M983.01 199.508C851.01 109.509 688.01 151.508 600.01 254.508C512.01 151.508 349.01 109.008 217.011 199.508C147.011 247.508 103.011 328.509 100.011 414.009C93.01 608.01 265.01 763.51 527.51 1002.01L532.51 1006.51C570.51 1041.01 629.01 1041.01 667.01 1006.01L672.51 1001.01C935.01 763.01 1106.51 607.51 1100.01 413.509C1097.01 328.509 1053.01 247.508 983.01 199.508ZM605.01 927.51L600.01 932.51L595.01 927.51C357.01 712.01 200.011 569.51 200.011 425.009C200.011 325.008 275.01 250.008 375.01 250.008C452.01 250.008 527.01 299.509 553.51 368.009H647.01C673.01 299.509 748.01 250.008 825.01 250.008C925.01 250.008 1000.01 325.008 1000.01 425.009C1000.01 569.51 843.01 712.01 605.01 927.51Z" fill="#1D1E23"/></g><defs><clipPath id="clip0_223_1871"><path width="24" fill="white" d="M0 0H1200V1200H0V0z"/></clipPath></defs></svg>
